symbols/web/toys/materialsymbolsoutlined/toys_grad200_24px.svg

<svg xmlns="http://www.w3.org/2000/svg" height="24" width="24"><path d="M6.9 20.85q-1.175 0-2.075-.725-.9-.725-1.175-1.875-1.05-.6-1.675-1.625T1.35 14.4q0-1.425.825-2.588Q3 10.65 4.35 10.15L2.7 8.5l-.15.1q-.375.375-.9.35-.525-.025-.9-.4t-.4-.9q-.025-.525.35-.9l2.1-2.1q.375-.375.9-.35.525.025.9.4t.4.9q.025.525-.35.9l-.1.15 1 1 .75-2.1q.375-1.1 1.3-1.775.925-.675 2.1-.675h4.7q1.175 0 2.112.662.938.663 1.288 1.788L19.3 10q1.5.375 2.45 1.6.95 1.225.95 2.8 0 1.2-.625 2.225-.625 1.025-1.675 1.625-.275 1.15-1.188 1.875-.912.725-2.112.725-.95 0-1.762-.525-.813-.525-1.288-1.375H10q-.475.875-1.3 1.387-.825.513-1.8.513Zm.75-11h3.05v-4.1h-1q-.3 0-.55.188-.25.187-.35.462Zm5.7 0h3.1L15.3 6.4q-.125-.275-.362-.462-.238-.188-.538-.188h-1.05Zm-3.3 6.45H14q.35-1 1.2-1.6.85-.6 1.9-.6.8 0 1.513.35.712.35 1.237.95.075-.25.138-.488.062-.237.062-.512 0-.8-.55-1.35t-1.35-.55H5.9q-.8 0-1.35.55T4 14.4q0 .275.062.512.063.238.138.488.5-.6 1.2-.95t1.5-.35q1.05 0 1.925.6t1.225 1.6Zm-3.125 1.9q.3 0 .513-.213.212-.212.212-.512 0-.3-.212-.513-.213-.212-.513-.212-.3 0-.513.212-.212.213-.212.513 0 .3.212.512.213.213.513.213Zm10.2 0q.3 0 .513-.213.212-.212.212-.512 0-.3-.212-.513-.213-.212-.513-.212-.3 0-.512.212-.213.213-.213.513 0 .3.213.512.212.213.512.213Zm-5.1-3.8Z"/></svg>

<svg xmlns="http://www.w3.org/2000/svg" height="24" width="24"><path d="M6.9 20.85Q5.725 20.85 4.825 20.125Q3.925 19.4 3.65 18.25Q2.6 17.65 1.975 16.625Q1.35 15.6 1.35 14.4Q1.35 12.975 2.175 11.812Q3 10.65 4.35 10.15L2.7 8.5L2.55 8.6Q2.175 8.975 1.65 8.95Q1.125 8.925 0.75 8.55Q0.375 8.175 0.35 7.65Q0.325 7.125 0.7 6.75L2.8 4.65Q3.175 4.275 3.7 4.3Q4.225 4.325 4.6 4.7Q4.975 5.075 5 5.6Q5.025 6.125 4.65 6.5L4.55 6.65L5.55 7.65L6.3 5.55Q6.675 4.45 7.6 3.775Q8.525 3.1 9.7 3.1H14.4Q15.575 3.1 16.512 3.762Q17.45 4.425 17.8 5.55L19.3 10Q20.8 10.375 21.75 11.6Q22.7 12.825 22.7 14.4Q22.7 15.6 22.075 16.625Q21.45 17.65 20.4 18.25Q20.125 19.4 19.212 20.125Q18.3 20.85 17.1 20.85Q16.15 20.85 15.338 20.325Q14.525 19.8 14.05 18.95H10Q9.525 19.825 8.7 20.337Q7.875 20.85 6.9 20.85ZM7.65 9.85H10.7V5.75H9.7Q9.4 5.75 9.15 5.938Q8.9 6.125 8.8 6.4ZM13.35 9.85H16.45L15.3 6.4Q15.175 6.125 14.938 5.938Q14.7 5.75 14.4 5.75H13.35ZM10.05 16.3H14Q14.35 15.3 15.2 14.7Q16.05 14.1 17.1 14.1Q17.9 14.1 18.613 14.45Q19.325 14.8 19.85 15.4Q19.925 15.15 19.988 14.912Q20.05 14.675 20.05 14.4Q20.05 13.6 19.5 13.05Q18.95 12.5 18.15 12.5H5.9Q5.1 12.5 4.55 13.05Q4 13.6 4 14.4Q4 14.675 4.062 14.912Q4.125 15.15 4.2 15.4Q4.7 14.8 5.4 14.45Q6.1 14.1 6.9 14.1Q7.95 14.1 8.825 14.7Q9.7 15.3 10.05 16.3ZM6.925 18.2Q7.225 18.2 7.438 17.987Q7.65 17.775 7.65 17.475Q7.65 17.175 7.438 16.962Q7.225 16.75 6.925 16.75Q6.625 16.75 6.412 16.962Q6.2 17.175 6.2 17.475Q6.2 17.775 6.412 17.987Q6.625 18.2 6.925 18.2ZM17.125 18.2Q17.425 18.2 17.638 17.987Q17.85 17.775 17.85 17.475Q17.85 17.175 17.638 16.962Q17.425 16.75 17.125 16.75Q16.825 16.75 16.613 16.962Q16.4 17.175 16.4 17.475Q16.4 17.775 16.613 17.987Q16.825 18.2 17.125 18.2ZM12.025 14.4Q12.025 14.4 12.025 14.4Q12.025 14.4 12.025 14.4Q12.025 14.4 12.025 14.4Q12.025 14.4 12.025 14.4Q12.025 14.4 12.025 14.4Q12.025 14.4 12.025 14.4Q12.025 14.4 12.025 14.4Q12.025 14.4 12.025 14.4Q12.025 14.4 12.025 14.4Q12.025 14.4 12.025 14.4Q12.025 14.4 12.025 14.4Q12.025 14.4 12.025 14.4Q12.025 14.4 12.025 14.4Q12.025 14.4 12.025 14.4Q12.025 14.4 12.025 14.4Q12.025 14.4 12.025 14.4Z"/></svg>
